src/assets/icons/unsplash.svg

<svg viewBox="0 0 640 640" xmlns="http://www.w3.org/2000/svg"><path d="m544 294.2v249.8h-448v-249.8h141.1v124.9h165.7v-124.9h141.1zm-141.1-198.2h-165.7v124.9h165.7z"/></svg>

<svg xmlns="http://www.w3.org/2000/svg" viewBox="0 0 640 640"><!--!Font Awesome Free 7.0.1 by @fontawesome - https://fontawesome.com License - https://fontawesome.com/license/free Copyright 2025 Fonticons, Inc.--><path d="M544 294.2L544 544L96 544L96 294.2L237.1 294.2L237.1 419.1L402.8 419.1L402.8 294.2L543.9 294.2zM402.9 96L237.2 96L237.2 220.9L402.9 220.9L402.9 96z"/></svg>
